!!!COM: Bach, Johann Sebastian
!!!OPR: Die Kunst der Fuge
!!!XEN: The Art of Fugue
!!!OTL:
!!!OMV: 9
!!!SCT: BWV 1080
!!!SCA: Thematisch-systematisches Verzeichnis der musikalischen Werke Johann Sebastian Bach: Bach-Werke-Verzeichnis (Schmieder)
!!!YOR: Bach Gesellschaft Edition xxv,1
!!!EED: Frances Bennion
!!!ENC: Frances Bennion
!!!CDT: 1685/3//-1750/7/28/
!!!OCY: Deutschland
!!!YEC: Copyright (c) 1994, 2000 Center for Computer Assisted Research in the Humanities
!!!YEM: Rights to all derivative editions reserved.
!!!YEM: Refer to licensing agreement for further details.
!!!YEN: United States of America
**kern	**kern	**kern	**kern
*k[b-]	*k[b-]	*k[b-]	*k[b-]
*d:	*d:	*d:	*d:
*clefG	*clefG	*clefC	*clefC
*M4/4	*M4/4	*M4/4	*M4/4
=1	=1	=1	=1
1r	4r	1r	1r
.	4d	.	.
.	[2dd	.	.
=2	=2	=2	=2
1r	4dd]	1r	1r
.	8cc#	.	.
.	8b	.	.
.	8a	.	.
.	8g	.	.
.	8f	.	.
.	8e	.	.
=3	=3	=3	=3
1r	8d	1r	1r
.	8c#	.	.
.	8d	.	.
.	8e	.	.
.	8f	.	.
.	8d	.	.
.	8e	.	.
.	8f	.	.
=4	=4	=4	=4
1r	8g	1r	1r
.	8f#	.	.
.	8g	.	.
.	8a	.	.
.	8b-	.	.
.	8g	.	.
.	8a	.	.
.	8b-	.	.
=5	=5	=5	=5
1r	4b-	1r	1r
.	4a	.	.
.	8r	.	.
.	8a	.	.
.	8g	.	.
.	8a	.	.
=6	=6	=6	=6
1r	8b-	1r	1r
.	8dd	.	.
.	8cc	.	.
.	8b-	.	.
.	8cc	.	.
.	8b-	.	.
.	8a	.	.
.	8g	.	.
=7	=7	=7	=7
1r	8f	1r	1r
.	8b-	.	.
.	8a	.	.
.	8g	.	.
.	8a	.	.
.	8g	.	.
.	8f	.	.
.	8e	.	.
=8	=8	=8	=8
4r	8d	1r	1r
.	8g	.	.
4a	8f	.	.
.	8e	.	.
[2aa	8f	.	.
.	8e	.	.
.	8d	.	.
.	8c	.	.
=9	=9	=9	=9
4aa]	4B	1r	1r
8gg#	4e	.	.
8ff#	.	.	.
8ee	4g#	.	.
8dd	.	.	.
8cc	4e	.	.
8b	.	.	.
=10	=10	=10	=10
8a	8c	1r	1r
8g#	8d	.	.
8a	8c	.	.
8b	8B	.	.
8cc	4A	.	.
8a	.	.	.
8b	4g	.	.
8cc	.	.	.
=11	=11	=11	=11
8dd	8f	1r	1r
8cc#	8g	.	.
8dd	8f	.	.
8ee	8e	.	.
8ff	4d	.	.
8dd	.	.	.
8ee	4dd	.	.
8ff	.	.	.
=12	=12	=12	=12
4ff	4g#	1r	1r
4ee	8a	.	.
.	8b	.	.
8r	4cc	.	.
8ee	.	.	.
8dd	4b	.	.
8ee	.	.	.
=13	=13	=13	=13
8ff	2a	1r	1r
8aa	.	.	.
8gg	.	.	.
8ff	.	.	.
8gg	4r	.	.
8ff	.	.	.
8ee	4g#	.	.
8dd	.	.	.
=14	=14	=14	=14
8cc	2a	1r	1r
8ff	.	.	.
8ee	.	.	.
8dd	.	.	.
8ee	4r	.	.
8dd	.	.	.
8cc	4e	.	.
8b-	.	.	.
=15	=15	=15	=15
8a	2f	1r	4r
8dd	.	.	.
8cc	.	.	4D
8b-	.	.	.
8cc	4r	.	[2d
8b-	.	.	.
8a	4f	.	.
8g#	.	.	.
=16	=16	=16	=16
4a	2e	1r	4d]
4ee	.	.	8c#
.	.	.	8B
2cc#	4r	.	8A
.	.	.	8G
.	[4g	.	8F
.	.	.	8E
=17	=17	=17	=17
2dd	4g]	1r	8D
.	.	.	8C#
.	8f	.	8D
.	8g	.	8E
4r	2a	.	8F
.	.	.	8D
[4cc	.	.	8E
.	.	.	8F
=18	=18	=18	=18
4cc]	2d	1r	8G
.	.	.	8F#
8b-	.	.	8G
8dd	.	.	8A
4gg	4r	.	8B-
.	.	.	8G
4ee	4g	.	8A
.	.	.	8B-
=19	=19	=19	=19
2cc#	4e	1r	4B-
.	8f	.	4A
.	8g	.	.
4r	4f	.	8r
.	.	.	8A
4cc#	4e	.	8G
.	.	.	8A
=20	=20	=20	=20
4dd	4d	1r	8B-
.	.	.	8d
4ff	2r	.	8c
.	.	.	8B-
16ee	.	.	8c
16ff	.	.	.
8gg	.	.	8B-
4b-	4e	.	8A
.	.	.	8G
=21	=21	=21	=21
4a	4f	1r	8F
.	.	.	8B-
4dd	2r	.	8A
.	.	.	8G
16cc#	.	.	8A
16dd	.	.	.
8ee	.	.	8G
4g	4c#	.	8F
.	.	.	8E
=22	=22	=22	=22
2f	2d	4r	8D
.	.	.	8G
.	.	4A	8F
.	.	.	8E
4r	4r	[2a	8F
.	.	.	8E
4cc	4e	.	8D
.	.	.	8C
=23	=23	=23	=23
2b	4f	4a]	4D
.	4d	8g#	4BB
.	.	8f#	.
4r	8r	8e	2E
.	8f	8d	.
4g#	8e	8c	.
.	8d	8B	.
=24	=24	=24	=24
[1a	8c	8A	2AA
.	8B	8G#	.
.	8c	8A	.
.	8d	8B	.
.	8e	8c	2r
.	8c	8A	.
.	8d	8B	.
.	8e	8c	.
=25	=25	=25	=25
1a]	4f	8d	8r
.	.	8c#	8G
.	2.r	8d	8F
.	.	8e	8E
.	.	8f	8D
.	.	8d	8C
.	.	8e	8BB
.	.	8f	8AA
=26	=26	=26	=26
8b	1r	4f	4.GG#
8cc	.	.	.
8dd	.	4e	.
8b	.	.	16FF#
.	.	.	16GG#
[2cc	.	8r	8AA
.	.	8e	8GG
.	.	8d	8FF
.	.	8e	8EE
=27	=27	=27	=27
2cc]	1r	8f	4DD
.	.	8a	.
.	.	8g	4D
.	.	8f	.
2b-	.	8g	4E
.	.	8f	.
.	.	8e	4C
.	.	8d	.
=28	=28	=28	=28
2a	1r	8c	4F
.	.	8f	.
.	.	8e	4BB
.	.	8d	.
2g	.	8e	4C#
.	.	8d	.
.	.	8c#	4AA
.	.	8B	.
=29	=29	=29	=29
8f	1r	4A	2D
8a	.	.	.
8g	.	8B-	.
8f	.	8A	.
8g	.	[2B-	4r
8f	.	.	.
8e	.	.	4D
8d	.	.	.
=30	=30	=30	=30
8g	1r	4B-]	2E
8b-	.	.	.
8a	.	8c	.
8g	.	8B-	.
8a	.	[2c	4r
8g	.	.	.
8f	.	.	4C
8e	.	.	.
=31	=31	=31	=31
4a	2.r	4c]	8F
.	.	.	8A
4cc	.	2.r	8G
.	.	.	8F
[2ff	.	.	8G
.	.	.	8F
.	4a	.	8E
.	.	.	8D
=32	=32	=32	=32
2ff]	8b-	1r	8G
.	8dd	.	8B-
.	8cc	.	8A
.	8b-	.	8G
[2ee	8cc	.	8A
.	8b-	.	8G
.	8a	.	8F
.	8g	.	8E
=33	=33	=33	=33
2ee]	8f	1r	2A
.	8a	.	.
.	8g	.	.
.	8f	.	.
[2dd	8g	.	4r
.	8f	.	.
.	8e	.	4B-
.	8d	.	.
=34	=34	=34	=34
2dd]	8e	1r	4G
.	8b-	.	.
.	8a	.	4E
.	8g	.	.
2cc#	8a	.	4A
.	8g	.	.
.	8f	.	4AA
.	8e	.	.
=35	=35	=35	=35
1dd	8d	4r	4BB-
.	8cc	.	.
.	8b-	4D	4F
.	8a	.	.
.	8g	[2d	2B-
.	8f	.	.
.	8e	.	.
.	8g	.	.
=36	=36	=36	=36
1aa	4f	4d]	2A
.	4e	8c#	.
.	.	8B	.
.	4r	8A	2r
.	.	8G	.
.	4cc#	8F	.
.	.	8E	.
=37	=37	=37	=37
1ff	4dd	8D	1r
.	.	8C#	.
.	4a	8D	.
.	.	8E	.
.	4dd	8F	.
.	.	8D	.
.	[4cc	8E	.
.	.	8F	.
=38	=38	=38	=38
1dd	4cc]	8G	1r
.	.	8F#	.
.	8b-	8G	.
.	8a	8A	.
.	4g	8B-	.
.	.	8G	.
.	4f	8A	.
.	.	8B-	.
=39	=39	=39	=39
1cc#	4e	4B-	1r
.	8f	4A	.
.	8g	.	.
.	4f	8r	.
.	.	8A	.
.	4e	8G	.
.	.	8A	.
=40	=40	=40	=40
2dd	4d	8B-	1r
.	.	8d	.
.	2g	8c	.
.	.	8B-	.
2ee	.	8c	.
.	.	8B-	.
.	4b-	8A	.
.	.	8G	.
=41	=41	=41	=41
[1ff	4a	8F	1r
.	.	8B-	.
.	4cc	8A	.
.	.	8G	.
.	4f	8A	.
.	.	8G	.
.	8a	8F	.
.	8g	8E	.
=42	=42	=42	=42
4ff]	8a	2D	1r
.	8ee	.	.
4gg	8dd	.	.
.	8cc#	.	.
4ff	8dd	8r	.
.	8cc	8D	.
4ee	8b-	8E	.
.	8a	8F	.
=43	=43	=43	=43
[1dd	4b-	8G	1r
.	.	8A	.
.	4cc	8G	.
.	.	8F	.
.	4b-	8G	.
.	.	8F	.
.	4a	8E	.
.	.	8D	.
=44	=44	=44	=44
8dd]	2g	8E	1r
8dd	.	8F	.
8cc	.	8E	.
8b-	.	8D	.
8cc	2r	8E	.
8b-	.	8C	.
8a	.	8D	.
8g	.	8E	.
=45	=45	=45	=45
8a	4r	1F	1r
8ccc	.	.	.
8bb-	4c	.	.
8aa	.	.	.
8bb-	[2cc	.	.
8aa	.	.	.
8gg	.	.	.
8ff	.	.	.
=46	=46	=46	=46
8ee	4cc]	1c	1r
8ff	.	.	.
4gg	8b-	.	.
.	8a	.	.
4r	8g	.	.
.	8f	.	.
4gg	8e	.	.
.	8d	.	.
=47	=47	=47	=47
4gg	8c	1A	1r
.	8B-	.	.
4ff	8c	.	.
.	8d	.	.
8r	8e	.	.
8cc	8c	.	.
8b-	8d	.	.
8cc	8e	.	.
=48	=48	=48	=48
4a	8f	1F	1r
.	8e	.	.
4dd	8f	.	.
.	8g	.	.
4cc	8a	.	.
.	8f	.	.
4b	8g	.	.
.	8a	.	.
=49	=49	=49	=49
4cc	4a	1E	1r
8b-	4g	.	.
8a	.	.	.
2b-	8r	.	.
.	8g	.	.
.	8f	.	.
.	8g	.	.
=50	=50	=50	=50
4a	8a	2F	1r
.	8cc	.	.
4ff	8b-	.	.
.	8a	.	.
[2dd	8b-	2G	.
.	8a	.	.
.	8g	.	.
.	8f	.	.
=51	=51	=51	=51
8dd]	8e	[1A	1r
8cc	8a	.	.
8b-	8g	.	.
8a	8f	.	.
8b-	8g	.	.
8a	8f	.	.
8g	8e	.	.
8f	8d	.	.
=52	=52	=52	=52
8e	2c	4A]	1r
8f	.	.	.
8g	.	4B-	.
8a	.	.	.
[2b-	8r	4A	.
.	8c	.	.
.	8d	4G	.
.	8e	.	.
=53	=53	=53	=53
8b-]	[2f	4F	1r
8a	.	.	.
8b	.	4d	.
8cc	.	.	.
[2dd	8f]	4c	.
.	8e	.	.
.	8f#	4B	.
.	8g#	.	.
=54	=54	=54	=54
8dd]	[2a	4A	1r
8cc	.	.	.
8dd	.	4f	.
8ee	.	.	.
[2ff	8a]	4e	.
.	8g	.	.
.	8a	4d	.
.	8b	.	.
=55	=55	=55	=55
8ff]	4cc	2c	1r
8ff	.	.	.
8ee	4e	.	.
8dd	.	.	.
8ee	4f#	2B	.
8dd	.	.	.
8cc	4g#	.	.
8b	.	.	.
=56	=56	=56	=56
8cc	4a	2A	1r
8dd	.	.	.
8cc	4c	.	.
8b-	.	.	.
8cc	4d	2G	.
8b-	.	.	.
8a	4e	.	.
8g	.	.	.
=57	=57	=57	=57
4a	4f	8F	1r
.	.	8B-	.
4cc#	4g	8A	.
.	.	8G	.
4dd	4f	8A	.
.	.	8G	.
4ee	4c#	8F	.
.	.	8E	.
=58	=58	=58	=58
8a	4c#	8F	1r
8b-	.	8G	.
8a	4d	8F	.
8g	.	8E	.
8a	2r	8F	.
8g	.	8E	.
8f	.	8D	.
8e	.	8C#	.
=59	=59	=59	=59
8f	1d	2D	4r
8cc	.	.	.
8b-	.	.	4DD
8a	.	.	.
8b-	.	2r	[2D
8a	.	.	.
8g	.	.	.
8f	.	.	.
=60	=60	=60	=60
4e	1a	1r	4D]
4ee	.	.	8C#
.	.	.	8BB
8r	.	.	8AA
8ee	.	.	8GG
8dd	.	.	8FF
8cc#	.	.	8EE
=61	=61	=61	=61
4dd	1f	1r	8DD
.	.	.	8CC#
4a	.	.	8DD
.	.	.	8EE
4dd	.	.	8FF
.	.	.	8DD
4cc	.	.	8EE
.	.	.	8FF
=62	=62	=62	=62
4b-	1d	1r	8GG
.	.	.	8FF#
4a	.	.	8GG
.	.	.	8AA
4g	.	.	8BB-
.	.	.	8GG
4f	.	.	8AA
.	.	.	8BB-
=63	=63	=63	=63
8e	1c#	1r	4BB-
8d	.	.	.
8e	.	.	4AA
8f	.	.	.
8g	.	.	8r
8e	.	.	8AA
[4a	.	.	8GG
.	.	.	8AA
=64	=64	=64	=64
8a]	2d	1r	8BB-
8f	.	.	8D
4.b-	.	.	8C
.	.	.	8BB-
.	2e	.	8C
8g	.	.	8BB-
8cc	.	.	8AA
8b-	.	.	8GG
=65	=65	=65	=65
8a	[1f	1r	8FF
8dd	.	.	8BB-
8cc	.	.	8AA
8b-	.	.	8GG
8cc	.	.	8AA
8a	.	.	8GG
[4cc	.	.	8FF
.	.	.	8EE
=66	=66	=66	=66
8cc]	4f]	1r	2DD
8dd	.	.	.
8cc	4g	.	.
8b-	.	.	.
8cc	4f	.	2r
8b-	.	.	.
8a	4e	.	.
8g	.	.	.
=67	=67	=67	=67
[1f	8d	1r	4r
.	8e	.	.
.	8d	.	4DD
.	8c#	.	.
.	8d	.	4EE
.	8c	.	.
.	8B	.	4FF
.	8A	.	.
=68	=68	=68	=68
8f]	[1B	1r	4GG
8a	.	.	.
8g	.	.	4G
8f	.	.	.
8g	.	.	4E
8f	.	.	.
8e	.	.	4G
8d	.	.	.
=69	=69	=69	=69
[1e	8B]	1r	4C
.	8d	.	.
.	8c	.	4CC
.	8B	.	.
.	8c	.	4DD
.	8B	.	.
.	8A	.	4EE
.	8G#	.	.
=70	=70	=70	=70
8e]	4A	1r	4FF
8gg	.	.	.
8ff	2.r	.	4A
8ee	.	.	.
8ff	.	.	4D
8ee	.	.	.
8dd	.	.	4F
8cc	.	.	.
=71	=71	=71	=71
[1dd	8r	1r	4BB
.	8cc	.	.
.	8b	.	4D
.	8a	.	.
.	8b	.	4GG#
.	8a	.	.
.	8g#	.	4BB
.	8f#	.	.
=72	=72	=72	=72
8dd]	4g#	1r	4EE
8ff	.	.	.
8ee	2.r	.	4E
8dd	.	.	.
8ee	.	.	4F#
8dd	.	.	.
8cc	.	.	4G#
8b	.	.	.
=73	=73	=73	=73
8cc	4r	1A	[1A
8ee	.	.	.
8dd	4e	.	.
8cc	.	.	.
8dd	[2ee	.	.
8cc	.	.	.
8b	.	.	.
8a	.	.	.
=74	=74	=74	=74
4b	4ee]	1e	8A]
.	.	.	8G#
2.r	8dd	.	8A
.	8cc	.	8F#
.	8b	.	4G#
.	8a	.	.
.	8g#	.	4B
.	8f#	.	.
=75	=75	=75	=75
4r	8e	1c	4B
.	8d	.	.
4e	8e	.	4A
.	8f#	.	.
[2ee	8g#	.	4r
.	8e	.	.
.	8f#	.	4E
.	8g#	.	.
=76	=76	=76	=76
4ee]	8a	1A	1F
.	8g#	.	.
4dd#	8a	.	.
.	8b	.	.
4r	8cc	.	.
.	8a	.	.
4dd#	8b	.	.
.	8cc	.	.
=77	=77	=77	=77
8ee	4cc	1G#	1E
8ff	.	.	.
8ee	4b	.	.
8dd	.	.	.
8ee	8r	.	.
8dd	8b	.	.
8cc	8a	.	.
8b	8b	.	.
=78	=78	=78	=78
4a	8cc	2A	1r
.	8ee	.	.
4aa	8dd	.	.
.	8cc	.	.
4dd	8dd	2B	.
.	8cc	.	.
[4ff	8b	.	.
.	8a	.	.
=79	=79	=79	=79
8ff]	8g	[1c	1r
8ee	8cc	.	.
8dd	8b	.	.
8cc	8a	.	.
8dd	8b	.	.
8cc	8a	.	.
8b	8g#	.	.
8a	8f#	.	.
=80	=80	=80	=80
2g#	4e	4c]	8r
.	.	.	8D
.	4f	4d	8C
.	.	.	8BB
4a	[2e	4c	8C
.	.	.	8BB
4b	.	4B	8AA
.	.	.	8GG#
=81	=81	=81	=81
[1cc	4e]	8A	4AA
.	.	8G#	.
.	4e	8A	2.r
.	.	8B	.
.	4a	8c	.
.	.	8A	.
.	4g	8B	.
.	.	8c	.
=82	=82	=82	=82
4cc]	4f#	8d	1r
.	.	8c#	.
4a	2.r	8d	.
.	.	8e	.
4dd	.	8f#	.
.	.	8d	.
4cc	.	8e	.
.	.	8f#	.
=83	=83	=83	=83
[1b	4r	8G	1r
.	.	8F#	.
.	4d	8G	.
.	.	8A	.
.	4g	8B	.
.	.	8G	.
.	4f	8A	.
.	.	8B	.
=84	=84	=84	=84
4b]	4e	8c	1r
.	.	8B	.
4g	2.r	8c	.
.	.	8d	.
4cc	.	8e	.
.	.	8c	.
4b-	.	8d	.
.	.	8e	.
=85	=85	=85	=85
1a	8r	4F	1r
.	8ee	.	.
.	8dd	4E	.
.	8cc	.	.
.	8dd	4F#	.
.	8cc	.	.
.	8b	4D	.
.	8a	.	.
=86	=86	=86	=86
1ee	8b	4G	1r
.	8cc	.	.
.	8b	4F#	.
.	8a	.	.
.	8b	4G#	.
.	8a	.	.
.	8g#	4E	.
.	8f#	.	.
=87	=87	=87	=87
8cc	1e	4A	1r
8aa	.	.	.
8gg	.	8B-	.
8ff	.	8A	.
8gg	.	4B-	.
8ff	.	.	.
8ee	.	[4G	.
8dd	.	.	.
=88	=88	=88	=88
8cc#	[1a	8G]	1r
8ee	.	8g	.
8dd	.	8f	.
8cc#	.	8e	.
8dd	.	8f	.
8cc#	.	8e	.
8b	.	8d	.
8a	.	8c#	.
=89	=89	=89	=89
4dd	4a]	8f	1D
.	.	8E	.
4a	8dd	8F	.
.	8ee	8G	.
[2aa	4ff	8A	.
.	.	8G	.
.	8ee	8A	.
.	8dd	8B	.
=90	=90	=90	=90
4aa]	4ee	8c#	1A
.	.	8B	.
8gg	2.r	8c#	.
8ff	.	8d	.
8ee	.	8c#	.
8dd	.	8d	.
8cc#	.	[4e	.
8b	.	.	.
=91	=91	=91	=91
8a	2r	4e]	1F
8g	.	.	.
8a	.	4d	.
8b	.	.	.
8cc	8r	[2A	.
8a	8c	.	.
8b	8d	.	.
8cc#	8e	.	.
=92	=92	=92	=92
8dd	4f	4A]	1D
8cc#	.	.	.
8dd	4.r	4F	.
8ee	.	.	.
8ff	.	4B-	.
8dd	8f	.	.
8ee	8g	4d	.
8ff	8a	.	.
=93	=93	=93	=93
4ff	8b-	4G	1C#
.	8a	.	.
4ee	8g	4B-	.
.	8b-	.	.
8r	[2a	8E	.
8ee	.	8G	.
8dd	.	8F	.
8ee	.	8E	.
=94	=94	=94	=94
8ff	4a]	4D	2D
8aa	.	.	.
8gg	2b-	2.r	.
8ff	.	.	.
8gg	.	.	2E
8ff	.	.	.
8ee	8cc	.	.
8dd	8b-	.	.
=95	=95	=95	=95
8cc	4a	4r	[1F
8ff	.	.	.
8ee	4f	4A	.
8dd	.	.	.
8ee	4g	2B-	.
8dd	.	.	.
8cc	4e	.	.
8b-	.	.	.
=96	=96	=96	=96
8a	4f	4c	4F]
8dd	.	.	.
8cc	2r	2r	4G
8b-	.	.	.
8cc	.	.	4F
8b-	.	.	.
8a	4c#	4G	4E
8g	.	.	.
=97	=97	=97	=97
8f	4d	4A	[1D
8b-	.	.	.
8a	2.r	4E	.
8g	.	.	.
8a	.	4F	.
8g	.	.	.
8f	.	4A	.
8e	.	.	.
=98	=98	=98	=98
[1d	1r	8B-	8D]
.	.	8c	8E-
.	.	8B-	8D
.	.	8A	8C
.	.	8B-	8D
.	.	8A	8C
.	.	8G	8BB-
.	.	8F#	8AA
=99	=99	=99	=99
8d]	4r	1G	2BB-
8dd	.	.	.
8cc	4d	.	.
8b-	.	.	.
8cc	[2dd	.	4r
8b-	.	.	.
8a	.	.	4B-
8g	.	.	.
=100	=100	=100	=100
4a	4dd]	1d	4F#
2.r	8cc	.	4A
.	8b-	.	.
.	8a	.	4F#
.	8g	.	.
.	8f#	.	4D
.	8e	.	.
=101	=101	=101	=101
2r	8d	1B-	2G
.	8c#	.	.
.	8d	.	.
.	8e	.	.
[2b-	8f#	.	2D
.	8d	.	.
.	8e	.	.
.	8f#	.	.
=102	=102	=102	=102
4b-]	8g	1G	4E-
.	8f#	.	.
4b	8g	.	4F
.	8a	.	.
4cc	8b-	.	4E
.	8g	.	.
4cc#	8a	.	4E-
.	8b-	.	.
=103	=103	=103	=103
8r	4b-	1F#	2D
8dd	.	.	.
8cc	4a	.	.
8b-	.	.	.
4cc	8r	.	8r
.	8a	.	8C
4dd	8g	.	8BB-
.	8a	.	8AA
=104	=104	=104	=104
4b-	8b-	2G	4GG
.	8dd	.	.
2gg	8cc	.	2.r
.	8b-	.	.
.	8cc	2A	.
.	8b-	.	.
8ff	8a	.	.
8ee-	8g	.	.
=105	=105	=105	=105
4dd	8f	[1B-	4r
.	8b-	.	.
4ee-	8a-	.	4E-
.	8g	.	.
4ff	8a-	.	4D
.	8g	.	.
4r	8f	.	4G
.	8e-	.	.
=106	=106	=106	=106
1r	2d	4B-]	8F
.	.	.	8A-
.	.	4c	8G
.	.	.	8F
.	4e-	4B-	8G
.	.	.	8F
.	4f	4A-	8E-
.	.	.	8D
=107	=107	=107	=107
1r	4B-	[1G	8E-
.	.	.	8F
.	4B	.	8E-
.	.	.	8D
.	4c	.	8E-
.	.	.	8D
.	4d	.	8C
.	.	.	8BB
=108	=108	=108	=108
1r	[1e-	4G]	8C
.	.	.	8D
.	.	4G	8C
.	.	.	8BB-
.	.	4A	8C
.	.	.	8BB-
.	.	4B-	8AA
.	.	.	8GG
=109	=109	=109	=109
1r	8e-]	[1c	8AA
.	8g	.	8BB-
.	8f	.	8AA
.	8e-	.	8GG
.	8f	.	8AA
.	8e-	.	8GG
.	8d	.	8FF#
.	8c	.	8EE
=110	=110	=110	=110
1r	[1a	8c]	2FF#
.	.	8e-	.
.	.	8d	.
.	.	8c	.
.	.	8d	4r
.	.	8c	.
.	.	8B-	4F#
.	.	8A	.
=111	=111	=111	=111
1r	8a]	2B-	4G
.	8b-	.	.
.	8a	.	4E-
.	8g	.	.
.	8b-	4c	4C
.	8a	.	.
.	8g	4A	4D
.	8f#	.	.
=112	=112	=112	=112
8r	4g	4B-	4GG
8d	.	.	.
8e	2.r	4c	2.r
8f#	.	.	.
8g	.	4B-	.
8f#	.	.	.
8g	.	4A	.
8a	.	.	.
=113	=113	=113	=113
8b-	1r	2G	4r
8g	.	.	.
8a	.	.	4F
8b	.	.	.
8cc	.	4A	4E-
8b	.	.	.
8cc	.	4B	4D
8dd	.	.	.
=114	=114	=114	=114
4ee-	8r	4c	4C
.	8B	.	.
4dd	8c	2.r	2.r
.	8d	.	.
4cc	8e-	.	.
.	8c	.	.
4b-	8d	.	.
.	8e	.	.
=115	=115	=115	=115
8a	[1f	1r	8r
8g	.	.	8E
8a	.	.	8F
8b-	.	.	8G
8cc	.	.	8A
8a	.	.	8F
8b	.	.	8G
8cc#	.	.	8A
=116	=116	=116	=116
4dd	2f]	8r	4B-
.	.	8c	.
2g	.	8B-	2.r
.	.	8A	.
.	2e	8G	.
.	.	8B-	.
[4f	.	8A	.
.	.	8G	.
=117	=117	=117	=117
8f]	4.d	4F	8r
8e	.	.	8G
2d	.	2.r	8F
.	8c	.	8E
.	2B-	.	8D
.	.	.	8F
[4g	.	.	8E
.	.	.	8D
=118	=118	=118	=118
8g]	4A	1r	4C#
8b-	.	.	.
8a	2.r	.	4E
8g	.	.	.
8a	.	.	4C#
8g	.	.	.
8f	.	.	4AA
8e	.	.	.
=119	=119	=119	=119
8f	1d	4r	4D
8e	.	.	.
8f	.	4D	4C
8a	.	.	.
8g	.	[2d	2BB-
8f	.	.	.
8e	.	.	.
8d	.	.	.
=120	=120	=120	=120
2e	1a	4d]	2AA
.	.	8c#	.
.	.	8B	.
4r	.	8A	4r
.	.	8G	.
4cc#	.	8F	4AA
.	.	8E	.
=121	=121	=121	=121
[2dd	1f	8D	[1BB-
.	.	8C#	.
.	.	8D	.
.	.	8E	.
8dd]	.	8F	.
8cc	.	8D	.
8b-	.	8E	.
8a	.	8F	.
=122	=122	=122	=122
[1g	1d	8G	2BB-]
.	.	8F#	.
.	.	8G	.
.	.	8A	.
.	.	8B-	8r
.	.	8G	8E
.	.	8A	8F
.	.	8B-	8G
=123	=123	=123	=123
1g]	1c#	4B-	8AA
.	.	.	8E
.	.	4A	8A
.	.	.	8G
.	.	8r	4F
.	.	8A	.
.	.	8G	4E
.	.	8A	.
=124	=124	=124	=124
2f	2d	8B-	2D
.	.	8d	.
.	.	8c	.
.	.	8B-	.
4r	2e	8c	4r
.	.	8B-	.
4b-	.	8A	4C#
.	.	8G	.
=125	=125	=125	=125
2a	[1f	8F	2D
.	.	8B-	.
.	.	8A	.
.	.	8G	.
4r	.	8A	4r
.	.	8G	.
4cc#	.	8F	4AA
.	.	8E	.
=126	=126	=126	=126
8dd	4f]	2D	2BB-
8cc	.	.	.
8b-	4g	.	.
8a	.	.	.
8b-	4f	4r	4r
8a	.	.	.
8g	4e-	4A	4C
8f#	.	.	.
=127	=127	=127	=127
[1g	2d	2B-	8BB-
.	.	.	8C
.	.	.	8BB-
.	.	.	8AA
.	4r	4r	8BB-
.	.	.	8AA
.	4d	4B-	8GG
.	.	.	8FF
=128	=128	=128	=128
8g]	4e	4C#	4EE
8b-	.	.	.
8a	4c#	4G	4E
8g	.	.	.
8a	[2d	4F	4F
8g	.	.	.
8f	.	4B-	4G
8e	.	.	.
=129	=129	=129	=129
4.f	2d]	2.A	4A
.	.	.	4G
8g	.	.	.
4.e	2c#	.	4A
.	.	4G	4AA
8d	.	.	.
=130	=130	=130	=130
1d	1A	1F#	1D
==	==	==	==
*-	*-	*-	*-
!!!RWG1: This file contains only pitch and duration data.
!!!RWG2: Transposing instruments are not transposed.
!!!RWG3: Spines may have incompatible meters.
!!!RWG4: Durations of rests and tied notes may be interpreted.
!!!RWG: Key is interpreted using the Humdrum key tool.
!!!AFT: stage1
!!!END: 1997/04/15/
!!format changes:
!!content changes:
!!public access: complete
!!!KEY: 4030060997
!!!EMD: Converted from MuseData to Humdrum Dec 19, 2000, by Andreas Kornstaedt using muse2kern.
